X:1
T:Three Jolly Sneaksmen
M:4/4
L:1/4
K:C
 G G3/4 F/4 E G3/4 G/4| C D A,3/2 B,/2| C C3/4 D/4 E G3/4 E/4| F D D G3/4 G/4|\
 c B A G| c G E2| c B A G3/4 G/4| A G E2| C D3/4 F/4 G2| F3/4 G/4 A3/4 B/4 c2|\
 G A3/4 G/4 G F| E/4 C3/4 D3/4 C/4 C2|

